X: 40951
T: Trip To Clarina, The
R: jig
M: 6/8
K: Edorian
A|GEF G2B|ABG FED|GEF Gge|dBA BEE|
GEF G2B|ABG FED|EFG BdB|AFD E2:|
F|GFE ~e3|dBc def|EGB efe|dBc d2f|
efe d2B|~A2D FED|EFG BdB|AFD E2:|

